projects/epgu-constructor/src/assets/icons/svg/female-child.svg

<svg width="23" height="24" viewBox="0 0 23 24" fill="none" xmlns="http://www.w3.org/2000/svg">
<path d="M7.28039 13.2363C6.75455 13.2363 6.32812 13.6627 6.32812 14.1886V15.3029C6.32812 15.8289 6.75455 16.2552 7.28039 16.2552C7.80623 16.2552 8.23265 15.8289 8.23265 15.3029V14.1886C8.23265 13.6627 7.80623 13.2363 7.28039 13.2363Z" fill="#4D83FA"/>
<path d="M15.7405 15.3029V14.1886C15.7405 13.6627 15.314 13.2363 14.7882 13.2363C14.2624 13.2363 13.8359 13.6627 13.8359 14.1886V15.3029C13.8359 15.8289 14.2624 16.2552 14.7882 16.2552C15.314 16.2552 15.7405 15.8289 15.7405 15.3029Z" fill="#4D83FA"/>
<path d="M12.4724 17.4592C11.6809 18.2506 10.3934 18.2506 9.60196 17.4592C9.32314 17.1802 8.87091 17.1803 8.59199 17.4592C8.31307 17.7381 8.31307 18.1904 8.59208 18.4692C9.26619 19.1433 10.1517 19.4804 11.0372 19.4804C11.9227 19.4804 12.8082 19.1433 13.4823 18.4692C13.7613 18.1903 13.7613 17.7381 13.4824 17.4592C13.2035 17.1803 12.7512 17.1802 12.4724 17.4592Z" fill="#4D83FA"/>
<path d="M11.0355 0C4.95053 0 0 4.95044 0 11.0355V21.91C0 22.8392 0.572789 23.62 1.45906 23.8992C1.67475 23.9671 1.89205 24 2.10527 24C2.76861 24 3.39168 23.6812 3.79458 23.1049L5.053 21.3048C6.68413 22.6404 8.76778 23.4429 11.0354 23.4429C13.303 23.4429 15.3868 22.6404 17.0178 21.3048L18.2762 23.1049C18.8087 23.8666 19.7256 24.1783 20.6118 23.8992C21.4981 23.62 22.0708 22.8393 22.0708 21.91V11.0355C22.071 4.95053 17.1206 0 11.0355 0ZM11.0355 1.90453C15.8798 1.90453 19.8543 5.69663 20.1483 10.4682C17.0386 10.3579 14.037 9.20858 11.6478 7.20254C11.2937 6.90515 10.7772 6.90515 10.4231 7.20254C8.03387 9.20858 5.03224 10.3579 1.92262 10.4682C2.21668 5.69673 6.19124 1.90453 11.0355 1.90453ZM2.23373 22.0136C2.21287 22.0433 2.15764 22.1221 2.03118 22.0825C1.90462 22.0427 1.90462 21.9463 1.90462 21.91V16.4514C2.25344 17.7415 2.86889 18.9231 3.68812 19.9332L2.23373 22.0136ZM11.0355 21.5383C6.87058 21.5383 3.48224 18.1499 3.48224 13.985V12.2478C6.21762 11.8902 8.82777 10.8245 11.0355 9.14992C13.2432 10.8245 15.8533 11.8903 18.5888 12.2478V13.985C18.5889 18.15 15.2005 21.5383 11.0355 21.5383ZM20.0399 22.0825C19.9128 22.1223 19.8581 22.0434 19.8374 22.0136L18.383 19.9331C19.2023 18.923 19.8177 17.7414 20.1665 16.4513V21.9099C20.1665 21.9463 20.1665 22.0426 20.0399 22.0825Z" fill="#4D83FA"/>
</svg>

<svg width="23" height="24" fill="none" xmlns="http://www.w3.org/2000/svg"><path d="M11.036 0C4.95 0 0 4.95 0 11.036V21.91c0 .93.573 1.71 1.46 1.99.215.067.432.1.645.1.664 0 1.287-.319 1.69-.895l1.258-1.8a9.414 9.414 0 005.982 2.138 9.413 9.413 0 005.983-2.138l1.258 1.8a2.052 2.052 0 002.336.794 2.052 2.052 0 001.459-1.989V11.036C22.07 4.95 17.12 0 11.035 0zm0 1.905c4.844 0 8.818 3.792 9.112 8.563a14.01 14.01 0 01-8.5-3.265.952.952 0 00-1.225 0 14.01 14.01 0 01-8.5 3.265c.294-4.771 4.268-8.563 9.113-8.563zM2.234 22.014c-.021.03-.076.108-.203.069-.126-.04-.126-.137-.126-.173v-5.459a9.44 9.44 0 001.783 3.482l-1.454 2.08zm8.802-.476c-4.165 0-7.554-3.388-7.554-7.553v-1.737a15.926 15.926 0 007.554-3.098 15.924 15.924 0 007.553 3.098v1.737c0 4.165-3.388 7.553-7.553 7.553zm9.004.544c-.127.04-.182-.039-.203-.068l-1.454-2.08a9.438 9.438 0 001.784-3.483v5.459c0 .036 0 .133-.127.172z" fill="#4D83FA"/></svg>
